public/icons/icon/discord.svg

<svg width="30" height="30" viewBox="0 0 30 30" fill="none" xmlns="http://www.w3.org/2000/svg">
<g clip-path="url(#clip0_916_107895)">
<path d="M8.16097 14.0244C8.64823 13.4997 9.30953 13.2032 10.0001 13.2C10.6908 13.2032 11.3521 13.4997 11.8393 14.0244C12.3266 14.5492 12.6001 15.2595 12.6001 16C12.6001 16.7404 12.3266 17.4507 11.8393 17.9755C11.3521 18.5002 10.6908 18.7967 10.0001 18.8C9.30953 18.7967 8.64823 18.5002 8.16097 17.9755C7.67371 17.4507 7.40015 16.7404 7.40015 16C7.40015 15.2595 7.67371 14.5492 8.16097 14.0244Z" fill="black"/>
<path d="M18.1585 14.0244C18.6458 13.4997 19.3071 13.2032 19.9977 13.2C20.6883 13.2032 21.3496 13.4997 21.8369 14.0244C22.3241 14.5492 22.5977 15.2595 22.5977 16C22.5977 16.7404 22.3241 17.4507 21.8369 17.9755C21.3496 18.5002 20.6883 18.7967 19.9977 18.8C19.3071 18.7967 18.6458 18.5002 18.1585 17.9755C17.6713 17.4507 17.3977 16.7404 17.3977 16C17.3977 15.2595 17.6713 14.5492 18.1585 14.0244Z" fill="black"/>
<path d="M12 6.79999C11.7912 6.08523 10.7517 4.71816 10 4.60004C8.47088 4.76658 6.03082 5.624 4.6 6.40004C3.57476 7.57227 2.52044 10.5558 2.10918 12.2C1.425 14.9355 1.04398 18.2476 0.994873 21.4C1.95111 23.2185 5.42945 25.2 7.5 25.4C7.98332 24.876 9.4 22.6 9.4 22.6M17.9951 6.79999C18.2039 6.08523 19.2434 4.71816 19.9951 4.60004C21.5242 4.76658 23.9643 5.624 25.3951 6.40004C26.4204 7.57227 27.4747 10.5558 27.8859 12.2C28.5701 14.9355 28.9511 18.2476 29.0002 21.4C28.044 23.2185 24.5657 25.2 22.4951 25.4C22.0118 24.876 20.5951 22.6 20.5951 22.6M7 9C7.6 8.2 9.99998 7 15 7C20 7 22.4 8.2 23 9M5.80005 20.4002C6.6 21.6002 8.40002 23.0002 15 23.0002C21.6001 23.0002 23.4 21.6003 24.2001 20.4002" stroke="black" stroke-width="2" stroke-linecap="round" stroke-linejoin="round"/>
</g>
<defs>
<clipPath id="clip0_916_107895">
<rect width="30" height="30" fill="white"/>
</clipPath>
</defs>
</svg>

<svg xmlns="http://www.w3.org/2000/svg" width="30" height="30" fill="none"><g clip-path="url(#a)"><path fill="#000" d="M8.161 14.024a2.527 2.527 0 0 1 1.84-.824c.69.003 1.351.3 1.838.824.488.525.761 1.236.761 1.976s-.273 1.45-.76 1.976A2.527 2.527 0 0 1 10 18.8a2.527 2.527 0 0 1-1.839-.825A2.906 2.906 0 0 1 7.401 16c0-.74.273-1.45.76-1.976ZM18.159 14.024a2.527 2.527 0 0 1 1.839-.824c.69.003 1.352.3 1.839.824.487.525.76 1.236.76 1.976s-.273 1.45-.76 1.976a2.527 2.527 0 0 1-1.84.824 2.527 2.527 0 0 1-1.838-.825A2.907 2.907 0 0 1 17.398 16c0-.74.273-1.45.76-1.976Z"/><path stroke="#000" stroke-linecap="round" stroke-linejoin="round" stroke-width="2" d="M12 6.8c-.209-.715-1.248-2.082-2-2.2-1.53.167-3.97 1.024-5.4 1.8-1.025 1.172-2.08 4.156-2.49 5.8-.685 2.736-1.066 6.048-1.115 9.2.956 1.819 4.434 3.8 6.505 4 .483-.524 1.9-2.8 1.9-2.8m8.595-15.8c.209-.715 1.248-2.082 2-2.2 1.53.167 3.97 1.024 5.4 1.8 1.025 1.172 2.08 4.156 2.49 5.8.685 2.736 1.066 6.048 1.115 9.2-.956 1.819-4.434 3.8-6.505 4-.483-.524-1.9-2.8-1.9-2.8M7 9c.6-.8 3-2 8-2s7.4 1.2 8 2M5.8 20.4C6.6 21.6 8.4 23 15 23s8.4-1.4 9.2-2.6"/></g><defs><clipPath id="a"><path fill="#fff" d="M0 0h30v30H0z"/></clipPath></defs></svg>
